public/images/info-bar-advantages__image1.svg

<svg width="107" height="108" viewBox="0 0 107 108" fill="none" xmlns="http://www.w3.org/2000/svg">
<path d="M103.474 53.5611C93.6211 34.4549 74.4724 22.5859 53.4998 22.5859C44.4793 22.5625 35.5935 24.7748 27.637 29.0249L29.2043 31.9783C36.6788 27.9858 45.026 25.9077 53.4998 25.9296C72.9331 25.9296 90.7097 36.7878 100.098 54.3271C93.2572 67.0947 81.6304 76.6608 68.0752 80.6382L69.0157 83.8467C83.716 79.5341 96.2749 69.0536 103.474 55.0936C103.596 54.8567 103.66 54.594 103.66 54.3274C103.66 54.0608 103.596 53.7981 103.474 53.5611Z" fill="black"/>
<path d="M53.4999 82.7253C34.0666 82.7253 16.29 71.8671 6.90157 54.3277C11.3639 45.9579 17.9353 38.8991 25.9649 33.8503L24.1911 31.0159C15.4051 36.5408 8.26772 44.3282 3.52772 53.5613C3.40555 53.7983 3.3418 54.061 3.3418 54.3276C3.3418 54.5941 3.40555 54.8569 3.52772 55.0938C13.3803 74.2 32.5289 86.0691 53.4999 86.0691C57.5591 86.07 61.6061 85.6239 65.5677 84.7389L64.8362 81.476C61.1148 82.3073 57.3131 82.7263 53.4999 82.7253Z" fill="black"/>
<path d="M84.5638 14.2266H103.656V10.8828H83.5935C83.2987 10.8828 83.0092 10.9607 82.7543 11.1087C82.4994 11.2566 82.2881 11.4693 82.1419 11.7252L75.4543 23.4284L78.3576 25.0873L84.5638 14.2266Z" fill="black"/>
<path d="M91.9531 17.5703H103.656V20.9141H91.9531V17.5703Z" fill="black"/>
<path d="M85.2656 17.5703H88.6094V20.9141H85.2656V17.5703Z" fill="black"/>
<path d="M98.6406 4.19531H103.656V7.53906H98.6406V4.19531Z" fill="black"/>
<path d="M83.5938 4.19531H95.2969V7.53906H83.5938V4.19531Z" fill="black"/>
<path d="M22.4359 94.4764H3.34375V97.8202H23.4062C23.701 97.8202 23.9905 97.7423 24.2454 97.5943C24.5003 97.4464 24.7116 97.2337 24.8579 96.9778L31.5454 85.2746L28.6421 83.6157L22.4359 94.4764Z" fill="black"/>
<path d="M3.34375 87.7891H15.0469V91.1328H3.34375V87.7891Z" fill="black"/>
<path d="M18.3906 87.7891H21.7344V91.1328H18.3906V87.7891Z" fill="black"/>
<path d="M3.34375 101.164H8.35938V104.508H3.34375V101.164Z" fill="black"/>
<path d="M11.7031 101.164H23.4062V104.508H11.7031V101.164Z" fill="black"/>
<path d="M76.164 43.6029C73.3942 37.77 68.4729 33.2366 62.4327 30.954C56.3924 28.6714 49.7029 28.8171 43.7678 31.3604C37.8326 33.9038 33.1133 38.6471 30.6001 44.5951C28.0869 50.543 27.9752 57.2332 30.2884 63.2618C32.6016 69.2903 37.1599 74.1886 43.0068 76.9287C48.8537 79.6688 55.5347 80.0378 61.6477 77.9581C67.7608 75.8785 72.8308 71.5119 75.7937 65.7747C78.7567 60.0375 79.3823 53.3757 77.5393 47.1872L74.3345 48.141C75.9417 53.5273 75.4 59.3267 72.8229 64.3221C70.2458 69.3174 65.8339 73.1203 60.513 74.9324C55.1922 76.7445 49.3763 76.425 44.286 74.041C39.1957 71.6569 35.2268 67.3936 33.2124 62.146C31.1981 56.8984 31.2948 51.0745 33.4824 45.8968C35.67 40.719 39.7783 36.5899 44.945 34.3763C50.1117 32.1626 55.935 32.0365 61.1927 34.0244C66.4504 36.0123 70.7336 39.9596 73.1433 45.0378L76.164 43.6029Z" fill="black"/>
<path d="M50.1562 45.9922H53.5V49.3359H50.1562V45.9922Z" fill="black"/>
<path d="M51.8281 52.6797H55.1719V56.0234H51.8281V52.6797Z" fill="black"/>
<path d="M46.8125 57.6953H50.1562V61.0391H46.8125V57.6953Z" fill="black"/>
<path d="M58.5156 54.3516H61.8594V57.6953H58.5156V54.3516Z" fill="black"/>
<path d="M71.8906 57.6953V51.0078H68.5469V52.6797H66.7705C66.4718 50.3002 65.5357 48.0455 64.0612 46.1541L65.3216 44.894L66.5038 46.0762L68.8681 43.7117L64.1394 38.9831L61.7758 41.3473L62.958 42.5295L61.6978 43.7899C59.8063 42.3155 57.5515 41.3796 55.1719 41.0811V39.3047H56.8438V35.9609H50.1562V39.3047H51.8281V41.0811C49.4486 41.3798 47.194 42.3158 45.3026 43.7903L44.0424 42.5299L45.2246 41.3477L42.8602 38.9835L38.1315 43.7122L40.4957 46.0758L41.678 44.8936L42.9383 46.1537C41.4639 48.0453 40.528 50.3 40.2295 52.6797H38.4531V51.0078H35.1094V57.6953H38.4531V56.0234H40.2295C40.5282 58.403 41.4643 60.6576 42.9388 62.549L41.6784 63.8092L40.4962 62.6269L38.1319 64.9914L42.8606 69.7201L45.2242 67.3558L44.042 66.1736L45.3022 64.9132C47.1937 66.3876 49.4485 67.3236 51.8281 67.6221V69.3984H50.1562V72.7422H56.8438V69.3984H55.1719V67.6221C57.5514 67.3234 59.806 66.3873 61.6974 64.9128L62.9576 66.1732L61.7754 67.3554L64.1398 69.7196L68.8685 64.991L66.5043 62.6273L65.322 63.8096L64.0617 62.5494C65.5361 60.6579 66.472 58.4031 66.7705 56.0234H68.5469V57.6953H71.8906ZM53.5 64.3828C51.516 64.3828 49.5766 63.7945 47.9269 62.6922C46.2773 61.59 44.9916 60.0233 44.2323 58.1904C43.4731 56.3574 43.2744 54.3404 43.6615 52.3946C44.0486 50.4487 45.0039 48.6613 46.4068 47.2584C47.8097 45.8555 49.5971 44.9001 51.543 44.5131C53.4889 44.126 55.5058 44.3247 57.3388 45.0839C59.1718 45.8431 60.7384 47.1289 61.8407 48.7785C62.9429 50.4281 63.5312 52.3676 63.5312 54.3516C63.5282 57.0111 62.4704 59.5608 60.5898 61.4414C58.7092 63.3219 56.1595 64.3798 53.5 64.3828Z" fill="black"/>
</svg>

<svg width="107" height="108" fill="none" xmlns="http://www.w3.org/2000/svg"><path d="M103.474 53.561C93.621 34.455 74.472 22.586 53.5 22.586a54.591 54.591 0 00-25.863 6.439l1.567 2.953A51.285 51.285 0 0153.5 25.93c19.433 0 37.21 10.858 46.598 28.397-6.84 12.768-18.468 22.334-32.023 26.311l.94 3.209c14.701-4.313 27.26-14.793 34.459-28.753a1.674 1.674 0 000-1.533zM53.5 82.725c-19.433 0-37.21-10.858-46.598-28.397A54.447 54.447 0 0125.965 33.85l-1.774-2.834A57.833 57.833 0 003.528 53.56a1.672 1.672 0 000 1.533c9.852 19.106 29 30.975 49.972 30.975 4.06.001 8.106-.445 12.068-1.33l-.732-3.263a51.937 51.937 0 01-11.336 1.25zm31.064-68.498h19.092v-3.344H83.593a1.671 1.671 0 00-1.451.842l-6.688 11.703 2.904 1.66 6.206-10.861z" fill="#000"/><path d="M91.953 17.57h11.703v3.344H91.953V17.57zm-6.687 0h3.343v3.344h-3.343V17.57zM98.64 4.195h5.016V7.54h-5.015V4.195zm-15.046 0h11.703V7.54H83.594V4.195zM22.436 94.476H3.344v3.344h20.062a1.671 1.671 0 001.452-.842l6.687-11.703-2.903-1.66-6.206 10.861z" fill="#000"/><path d="M3.344 87.79h11.703v3.343H3.344v-3.344zm15.046 0h3.344v3.343h-3.343v-3.344zM3.344 101.164h5.015v3.344H3.344v-3.344zm8.359 0h11.703v3.344H11.703v-3.344zm64.461-57.561a24.974 24.974 0 101.375 3.584l-3.204.954a21.737 21.737 0 11-1.192-3.103l3.021-1.435z" fill="#000"/><path d="M50.156 45.992H53.5v3.344h-3.344v-3.344zm1.672 6.688h3.344v3.343h-3.344V52.68zm-5.015 5.015h3.343v3.344h-3.343v-3.344zm11.703-3.343h3.343v3.343h-3.343v-3.343z" fill="#000"/><path d="M71.89 57.695v-6.687h-3.343v1.672H66.77a13.31 13.31 0 00-2.71-6.526l1.26-1.26 1.183 1.182 2.364-2.364-4.729-4.729-2.363 2.364 1.182 1.182-1.26 1.26a13.31 13.31 0 00-6.526-2.708v-1.776h1.672V35.96h-6.688v3.344h1.672v1.776a13.31 13.31 0 00-6.525 2.71l-1.26-1.261 1.182-1.182-2.365-2.364-4.728 4.728 2.364 2.364 1.182-1.182 1.26 1.26a13.31 13.31 0 00-2.709 6.526h-1.776v-1.672H35.11v6.687h3.344v-1.672h1.776a13.31 13.31 0 002.71 6.526l-1.26 1.26-1.183-1.182-2.364 2.364 4.729 4.73 2.363-2.365-1.182-1.182 1.26-1.26a13.31 13.31 0 006.526 2.708v1.776h-1.672v3.344h6.688v-3.344h-1.672v-1.776a13.31 13.31 0 006.525-2.71l1.26 1.261-1.182 1.182 2.365 2.365 4.728-4.729-2.364-2.364-1.182 1.183-1.26-1.26a13.31 13.31 0 002.709-6.527h1.776v1.672h3.344zM53.5 64.383a10.031 10.031 0 1110.031-10.031A10.042 10.042 0 0153.5 64.382z" fill="#000"/></svg>
